X:395
T:Tom and Jerry
S:Sam Bush, Repertoire Tape, 1985
M:4/4
L:1/8
K:A
EF|A2 Ac BAGB|ABcA ecAG|Acea (3f=gf ed|cedf edcB|
AAec BAGB|ABcA ecAG|Acea (3f=gf ed|cAec A2:|
eg|aeca ecBc|defg agfg|egbe (3fgf eg|agbg aece|
aeca ecBc|defg agfg|egbe (3fgf eg|agbg a2:|
